svg/user/group_3_line.svg

<svg xmlns="http://www.w3.org/2000/svg" width="24" height="24" viewBox="0 0 24 24"><g fill="none" fill-rule="evenodd"><path d="M24,0 L24,24 L0,24 L0,0 L24,0 Z M12.5935,23.2578 L12.5819,23.2595 L12.5109,23.295 L12.4919,23.2987 L12.4767,23.295 L12.4057,23.2595 C12.3958,23.2564 12.387,23.259 12.3821,23.2649 L12.378,23.2758 L12.3609,23.7031 L12.3659,23.7235 L12.3769,23.7357 L12.4805,23.8097 L12.4953,23.8136 L12.5071,23.8097 L12.6107,23.7357 L12.6233,23.7197 L12.6267,23.7031 L12.6096,23.2758 C12.6076,23.2657 12.601,23.2593 12.5935,23.2578 Z M12.8584,23.1453 L12.8445,23.1473 L12.6598,23.2397 L12.6499,23.2499 L12.6472,23.2611 L12.6651,23.6906 L12.6699,23.7034 L12.6784,23.7105 L12.8793,23.8032 C12.8914,23.8069 12.9022,23.803 12.9078,23.7952 L12.9118,23.7812 L12.8777,23.1665 C12.8753,23.1546 12.8674,23.147 12.8584,23.1453 Z M12.143,23.1473 C12.1332,23.1424 12.1222,23.1453 12.1156,23.1526 L12.1099,23.1665 L12.0758,23.7812 C12.0751,23.7927 12.0828,23.8019 12.0926,23.8046 L12.1083,23.8032 L12.3092,23.7105 L12.3186,23.7024 L12.3225,23.6906 L12.3404,23.2611 L12.3372,23.2485 L12.3278,23.2397 L12.143,23.1473 Z"/><path fill="#09244B" d="M12,12 C13.8729,12 15.5707,12.6196 16.8146,13.487 C17.9981,14.3123 19,15.5381 19,16.8571 C19,17.5815 18.6914,18.1811 18.2045,18.6278 C17.7464,19.0481 17.1483,19.3206 16.5323,19.507 C15.301,19.8797 13.6803,20 12,20 C10.3197,20 8.69903,19.8797 7.46769,19.507 C6.85169,19.3206 6.25355,19.0481 5.79546,18.6278 C5.30861,18.1811 5,17.5815 5,16.8571 C5,15.5381 6.00191,14.3123 7.18535,13.487 C8.42925,12.6196 10.1271,12 12,12 Z M12,14 C10.5592,14 9.25704,14.4806 8.32936,15.1275 C7.34124,15.8166 7,16.5194 7,16.8571 C7,17.1609538 7.35204805,17.3513598 7.67238885,17.4711552 L7.87704071,17.5410281 L7.87704071,17.5410281 L8.04703,17.5928 L8.04703,17.5928 C8.98726,17.8773 10.3666,18 12,18 C13.5077538,18 14.7989964,17.8954509 15.728299,17.6555995 L16.0320801,17.5690004 L16.0320801,17.5690004 L16.2225535,17.5085306 C16.5653846,17.3922716 17,17.1947154 17,16.8571 C17,16.5194 16.6588,15.8166 15.6706,15.1275 C14.743,14.4806 13.4408,14 12,14 Z M19,13 C20.0445,13 20.9923,13.3445 21.6933,13.8334 C22.3339,14.2801 23,15.0237 23,15.9286 C23,17.264325 21.7032078,17.741842 20.5371618,17.9087546 L20.2368805,17.9456112 L20.2368805,17.9456112 L19.9481626,17.9705365 C19.9013195,17.9738165 19.8551929,17.9766893 19.8099,17.9792 C19.9322,17.6344 20,17.2591 20,16.8571 C20,16.5516 19.962,16.2552 19.8927,15.9694 C20.2793,15.9398 20.5962,15.8891 20.8317,15.8178 C20.93556,15.78636 20.84106,15.68832 20.7320808,15.6032328 L20.6250856,15.5254096 L20.6250856,15.5254096 L20.5493,15.4739 L20.5493,15.4739 C20.285,15.2896 19.9418,15.1349 19.5543,15.0561 C19.1735,14.2962 18.5899,13.6378 17.9679,13.113 C18.2966,13.0403 18.6426,13 19,13 Z M5,13 C5.35735,13 5.7034,13.0403 6.03211,13.113 C5.41011,13.6378 4.82646,14.2962 4.44567,15.0561 C4.0582,15.1349 3.71496,15.2896 3.45069,15.4739 L3.32277021,15.5621369 C3.1959678,15.65379 3.047159,15.78112 3.16835,15.8178 C3.40378,15.8891 3.72066,15.9398 4.10727,15.9694 C4.03798,16.2552 4,16.5516 4,16.8571 C4,17.2591 4.06783,17.6344 4.19007,17.9792 L3.90925555,17.9594302 L3.90925555,17.9594302 L3.61405971,17.9288093 C2.41202286,17.7817429 1,17.3224 1,15.9286 C1,15.0237 1.66612,14.2801 2.30667,13.8334 C3.00768,13.3445 3.95551,13 5,13 Z M18.5,7 C19.8807,7 21,8.11929 21,9.5 C21,10.8807 19.8807,12 18.5,12 C17.1193,12 16,10.8807 16,9.5 C16,8.11929 17.1193,7 18.5,7 Z M5.5,7 C6.88071,7 8,8.11929 8,9.5 C8,10.8807 6.88071,12 5.5,12 C4.11929,12 3,10.8807 3,9.5 C3,8.11929 4.11929,7 5.5,7 Z M12,3 C14.2091,3 16,4.79086 16,7 C16,9.20914 14.2091,11 12,11 C9.79086,11 8,9.20914 8,7 C8,4.79086 9.79086,3 12,3 Z M18.5,9 C18.2239,9 18,9.22386 18,9.5 C18,9.77614 18.2239,10 18.5,10 C18.7761,10 19,9.77614 19,9.5 C19,9.22386 18.7761,9 18.5,9 Z M5.5,9 C5.22386,9 5,9.22386 5,9.5 C5,9.77614 5.22386,10 5.5,10 C5.77614,10 6,9.77614 6,9.5 C6,9.22386 5.77614,9 5.5,9 Z M12,5 C10.8954,5 10,5.89543 10,7 C10,8.10457 10.8954,9 12,9 C13.1046,9 14,8.10457 14,7 C14,5.89543 13.1046,5 12,5 Z"/></g></svg>

<svg xmlns="http://www.w3.org/2000/svg" width="24" height="24"><g fill="none" fill-rule="evenodd"><path d="M24 0v24H0V0zM12.594 23.258l-.012.002-.071.035-.02.004-.014-.004-.071-.036c-.01-.003-.019 0-.024.006l-.004.01-.017.428.005.02.01.013.104.074.015.004.012-.004.104-.074.012-.016.004-.017-.017-.427c-.002-.01-.009-.017-.016-.018m.264-.113-.014.002-.184.093-.01.01-.003.011.018.43.005.012.008.008.201.092c.012.004.023 0 .029-.008l.004-.014-.034-.614c-.003-.012-.01-.02-.02-.022m-.715.002a.023.023 0 0 0-.027.006l-.006.014-.034.614c0 .012.007.02.017.024l.015-.002.201-.093.01-.008.003-.011.018-.43-.003-.012-.01-.01z"/><path fill="#09244B" d="M12 12c1.873 0 3.57.62 4.815 1.487 1.183.825 2.185 2.051 2.185 3.37 0 .724-.309 1.324-.796 1.77-.458.421-1.056.694-1.672.88C15.301 19.88 13.68 20 12 20c-1.68 0-3.301-.12-4.532-.493-.616-.186-1.214-.459-1.673-.88C5.31 18.182 5 17.582 5 16.858c0-1.319 1.002-2.545 2.185-3.37C8.43 12.62 10.127 12 12 12m0 2c-1.44 0-2.743.48-3.67 1.127-.989.69-1.33 1.392-1.33 1.73 0 .304.352.494.672.614l.205.07.17.052c.94.284 2.32.407 3.953.407 1.508 0 2.799-.105 3.728-.344l.304-.087.19-.06c.343-.117.778-.314.778-.652s-.341-1.04-1.33-1.73C14.744 14.481 13.44 14 12 14m7-1c1.044 0 1.992.345 2.693.833.64.447 1.307 1.19 1.307 2.096 0 1.335-1.297 1.813-2.463 1.98l-.3.037-.289.025a9.535 9.535 0 0 1-.138.008c.122-.345.19-.72.19-1.122 0-.305-.038-.602-.107-.888.386-.03.703-.08.939-.151.104-.032.01-.13-.1-.215l-.107-.078-.076-.051a2.698 2.698 0 0 0-.995-.418c-.38-.76-.964-1.418-1.586-1.943A4.78 4.78 0 0 1 19 13M5 13c.357 0 .703.04 1.032.113-.622.525-1.206 1.183-1.586 1.943-.388.079-.731.234-.995.418l-.128.088c-.127.092-.276.22-.155.256.236.071.553.122.94.151-.07.286-.108.583-.108.888 0 .402.068.777.19 1.122l-.28-.02-.296-.03c-1.202-.147-2.614-.607-2.614-2 0-.905.666-1.649 1.307-2.096A4.756 4.756 0 0 1 5 13m13.5-6a2.5 2.5 0 1 1 0 5 2.5 2.5 0 0 1 0-5m-13 0a2.5 2.5 0 1 1 0 5 2.5 2.5 0 0 1 0-5M12 3a4 4 0 1 1 0 8 4 4 0 0 1 0-8m6.5 6a.5.5 0 1 0 0 1 .5.5 0 0 0 0-1m-13 0a.5.5 0 1 0 0 1 .5.5 0 0 0 0-1M12 5a2 2 0 1 0 0 4 2 2 0 0 0 0-4"/></g></svg>
